X:1
T:[ID 8v-11a (= 8-185a)]
T:[ID 8v-11a (= 8-185a)]
T:Bezeichnung standardisiert: B\"aurischer oder Walzer B\"auerischer oder Walzer
T:Urheber unbekannt Datum in der hier transkribierten schriftlichen Quelle: 1792
C:Urheber unbekannt
C:Datum in der hier transkribierten schriftlichen Quelle: 1792
L:1/8
M:3/8
K:C
V:1 treble 
V:1
 ccc | ddd | eee | d3 | ddd | eee | ddd | e3 :: ccc | GGG | ccc | G3 | GGG | ccc | GGG | c3 :| %16

